icons/git-repository-line.svg

<svg xmlns="http://www.w3.org/2000/svg" width="24" height="24" fill="none"><g clip-path="url(#a)"><g><path fill="#121212" d="M13 21V23.5L10 21.5L7 23.5V21H6.5C5.57174 21 4.6815 20.6313 4.02513 19.9749C3.36875 19.3185 3 18.4283 3 17.5V5C3 4.20435 3.31607 3.44129 3.87868 2.87868C4.44129 2.31607 5.20435 2 6 2H20C20.2652 2 20.5196 2.10536 20.7071 2.29289C20.8946 2.48043 21 2.73478 21 3V20C21 20.2652 20.8946 20.5196 20.7071 20.7071C20.5196 20.8946 20.2652 21 20 21H13ZM13 19H19V16H6.5C6.10218 16 5.72064 16.158 5.43934 16.4393C5.15804 16.7206 5 17.1022 5 17.5C5 17.8978 5.15804 18.2794 5.43934 18.5607C5.72064 18.842 6.10218 19 6.5 19H7V17H13V19ZM19 14V4H6V14.035C6.16563 14.0115 6.33271 13.9998 6.5 14H19ZM7 5H9V7H7V5ZM7 8H9V10H7V8ZM7 11H9V13H7V11Z"/></g></g><defs><clipPath id="a"><rect width="24" height="24" fill="white"/></clipPath></defs></svg>

<svg width="24" height="24" fill="none" xmlns="http://www.w3.org/2000/svg"><g clip-path="url(#a)"><path d="M13 21v2.5l-3-2-3 2V21h-.5A3.5 3.5 0 0 1 3 17.5V5a3 3 0 0 1 3-3h14a1 1 0 0 1 1 1v17a1 1 0 0 1-1 1h-7Zm0-2h6v-3H6.5a1.5 1.5 0 1 0 0 3H7v-2h6v2Zm6-5V4H6v10.035A3.53 3.53 0 0 1 6.5 14H19ZM7 5h2v2H7V5Zm0 3h2v2H7V8Zm0 3h2v2H7v-2Z" /></g><defs><clipPath id="a"><path fill="#fff" d="M0 0h24v24H0z"/></clipPath></defs></svg>
